!!!!SEGMENT: pl-stab--12a--004_raszek-waclaw--missa-solemnis-ex-g-cum-sancto-spiritu.krn
!!!cenid: 18xx:3524
!!!COM: Raszek, Wacław
!!!COM-rismID: pe30020314
!!!CDT: <1848->1848
!!!CNT:
!!!OPR: Missa Solemnis ex G
!!!OTL: Cum sancto spiritu
!!!OMV: 004
!!!PDT: 1815
!!!AGN:
!!!SMS-siglum: PL-STAb
!!!SMS-shelfmark: 12a
!!!SMS-shelfwork: M
!!!SMS-variant:
!!!SMS-altvar:
!!!NIFC-rismSourceID: 301050679
!!!NIFC-islandoraID: pl-stab:2464
!!!URL-pdf-islandora: https://repozytorium.nifc.pl/islandora/object/pl-stab%3A2464/datastream/PDF/view
!!!URL-scan: https://polish.musicsources.pl/pl/lokalizacje/galeria/rekopisy/4407 @EN{Scan on Polish Music Sources Website} @PL{Skany w portalu Dziedzictwo Muzyki Polskiej w otwartym dostępie}
!!!ONB-nifc: UWAGA: części Mszy: 1. Kyrie, 2. Gloria, 3. Domine Deus, 4. Cum sancto spiritu, 5. In gloria Dei Patris amen, 6. Credo, 7. Et incarnatus, 8. Et resurrexit, 9. Sanctus, 10. Pleni sunt, 11. Benedictus, 12. Agnus Dei, 13. Dona nobis
!!!AIN: 1 alto 3 empty 2 flt 1 organ 1 tenor 1 viola 2 violn 1 vox
!!!key:
**kern	**fba	**dynam	**kern	**dynam	**kern	**dynam	**kern	**dynam	**kern	**text	**kern	**text	**kern	**text	**dynam	**kern	**text	**dynam	**kern	**dynam	**kern	**dynam	**kern	**dynam	**kern	**dynam
*part12	*part12	*part12	*part11	*part11	*part10	*part10	*part9	*part9	*part8	*part8	*part7	*part7	*part6	*part6	*part6	*part5	*part5	*part5	*part4	*part4	*part3	*part3	*part2	*part2	*part1	*part1
*staff12	*staff12	*	*staff11	*	*staff10	*	*staff9	*	*staff8	*staff8	*staff7	*staff7	*staff6	*staff6	*	*staff5	*staff5	*	*staff4	*	*staff3	*	*staff2	*	*staff1	*
*Iorgan	*	*	*Iviola	*	*Ivioln	*	*Ivioln	*	*Iempty	*	*Itenor	*	*Ialto	*	*	*Ivox	*	*	*Iempty	*	*Iempty	*	*Iflt	*	*Iflt	*
*I"Organo	*	*	*I"Alto Viola	*	*I"Violino Secundo	*	*I"Violino Primo	*	*I"Baſso	*	*I"Tenore	*	*I"Alto	*	*	*I"Canto	*	*	*I"Cornu 2do	*	*I"Cornu 1mo In G.	*	*I"Flauto IIdo	*	*I"Flauto 1mo	*
*I'org	*	*	*I'vla	*	*I'vl 2	*	*I'vl 1	*	*I'B	*	*I'T	*	*I'A	*	*	*I'S	*	*	*I'cor 2	*	*I'cor 1 in G	*	*I'fl 2	*	*I'fl 1	*
*clefF4	*	*	*clefC3	*	*clefG2	*	*clefG2	*	*clefF4	*	*clefC4	*	*clefC3	*	*	*clefC1	*	*	*clefG2	*	*clefG2	*	*clefG2	*	*clefG2	*
*	*	*	*	*	*	*	*	*	*	*	*	*	*	*	*	*	*	*	*ITrd3c5	*	*ITrd3c5	*	*	*	*	*
*k[f#]	*	*	*k[]	*	*k[]	*	*k[]	*	*k[]	*	*k[]	*	*k[]	*	*	*k[]	*	*	*k[f#]	*	*k[f#]	*	*k[]	*	*k[]	*
*a:	*	*	*a:	*	*a:	*	*a:	*	*a:	*	*a:	*	*a:	*	*	*a:	*	*	*a:	*	*a:	*	*a:	*	*a:	*
*M4/4	*	*	*M4/4	*	*M4/4	*	*M4/4	*	*M4/4	*	*M4/4	*	*M4/4	*	*	*M4/4	*	*	*M4/4	*	*M4/4	*	*M4/4	*	*M4/4	*
*met(c)	*	*	*met(c)	*	*met(c)	*	*met(c)	*	*met(c)	*	*met(c)	*	*met(c)	*	*	*met(c)	*	*	*met(c)	*	*met(c)	*	*met(c)	*	*met(c)	*
=1	=1	=1	=1	=1	=1	=1	=1	=1	=1	=1	=1	=1	=1	=1	=1	=1	=1	=1	=1	=1	=1	=1	=1	=1	=1	=1
*2\right	*	*	*2\right	*	*	*	*2\right	*	*2\right	*	*2\right	*	*2\right	*	*	*2\right	*	*	*2\right	*	*2\right	*	*2\right	*	*2\right	*
*tremolo	*	*	*tremolo	*	*tremolo	*	*tremolo	*	*	*	*	*	*	*	*	*	*	*	*tremolo	*	*tremolo	*	*	*	*	*
!LO:TX:a:i:t=Tutti	!	!	!	!	!	!	!	!	!	!	!	!	!	!	!	!	!	!	!	!	!	!	!	!	!LO:TX:t=P:global:problem=oznaczenie metryczne C.	!
!	!	!	!	!	!	!	!	!	!	!	!	!	!	!	!	!	!	!	!LO:TX:a:i:t=in G.	!	!	!	!	!	!	!
!LO:TX:a:Bi:t=Adagio	!	!LO:DY:a:t=for	!LO:TX:a:Bi:t=Adagio	!LO:DY:a:t=for	!LO:TX:a:Bi:t=Adagio	!LO:DY:a:t=for	!LO:TX:a:Bi:t=Adagio	!LO:DY:a:t=for	!LO:TX:a:Bi:t=Adagio	!	!LO:TX:a:Bi:t=Adagio	!	!LO:TX:a:Bi:t=Adagio	!	!	!LO:TX:a:Bi:t=Adagio	!	!	!LO:TX:a:Bi:t=Adagio	!	!LO:TX:a:Bi:t=Andante	!	!LO:TX:a:Bi:t=Adagio	!	!LO:TX:a:Bi:t=Adagio	!LO:DY:a
8A\L	n	f	8a\L	f	8e/L	f	8cc\L	f	2A\	Cum	2A\	Cum	2e\	Cum	.	2cc\	Cum	.	8a\L	.	8a\L	.	2ee\	.	2ccc\	f
8A\	.	.	8a\	.	8e/	.	8cc\	.	.	.	.	.	.	.	.	.	.	.	8a\	.	8a\	.	.	.	.	.
8A\	.	.	8a\	.	8e/	.	8cc\	.	.	.	.	.	.	.	.	.	.	.	8a\	.	8a\	.	.	.	.	.
8A\J	.	.	8a\J	.	8e/J	.	8cc\J	.	.	.	.	.	.	.	.	.	.	.	8a\J	.	8a\J	.	.	.	.	.
8A\L	.	.	8a\L	.	8e/L	.	8cc\L	.	2A\	San-	2A\	San-	2e\	San-	.	2cc\	San-	.	8a\L	.	8a\L	.	2ee\	.	2ccc\	.
8A\	.	.	8a\	.	8e/	.	8cc\	.	.	.	.	.	.	.	.	.	.	.	8a\	.	8a\	.	.	.	.	.
8A\	.	.	8a\	.	8e/	.	8cc\	.	.	.	.	.	.	.	.	.	.	.	8a\	.	8a\	.	.	.	.	.
8A\J	.	.	8a\J	.	8e/J	.	8cc\J	.	.	.	.	.	.	.	.	.	.	.	8a\J	.	8a\J	.	.	.	.	.
=2	=2	=2	=2	=2	=2	=2	=2	=2	=2	=2	=2	=2	=2	=2	=2	=2	=2	=2	=2	=2	=2	=2	=2	=2	=2	=2
8G\L	4 2	.	8g\L	.	8a/L 8e/	.	8cc#X\L	.	2G\	-cto	2A\	-cto	2e\	-cto	.	2cc#X\	-cto	.	8a\L	.	8a\L	.	2ee\	.	2ccc#X\	.
8G\	.	.	8g\	.	8a/ 8e/	.	8cc#\	.	.	.	.	.	.	.	.	.	.	.	8a\	.	8a\	.	.	.	.	.
8G\	.	.	8g\	.	8a/ 8e/	.	8cc#\	.	.	.	.	.	.	.	.	.	.	.	8a\	.	8a\	.	.	.	.	.
8G\J	.	.	8g\J	.	8a/J 8e/	.	8cc#\J	.	.	.	.	.	.	.	.	.	.	.	8a\J	.	8a\J	.	.	.	.	.
8Fn\L	6	.	8f\L	.	8a/L	.	8dd\L	.	2F\	cum	2A\	cum	2a\	cum	.	2dd\	cum	.	8a\L	.	8a\L	.	2aa\	.	2ddd\	.
8F\	.	.	8f\	.	8a/	.	8dd\	.	.	.	.	.	.	.	.	.	.	.	8a\	.	8a\	.	.	.	.	.
8F\	.	.	8f\	.	8a/	.	8dd\	.	.	.	.	.	.	.	.	.	.	.	8a\	.	8a\	.	.	.	.	.
8F\J	.	.	8f\J	.	8a/J	.	8dd\J	.	.	.	.	.	.	.	.	.	.	.	8a\J	.	8a\J	.	.	.	.	.
*	*	*	*	*	*	*	*	*	*	*	*	*	*	*	*	*	*	*	*Xtremolo	*	*Xtremolo	*	*	*	*	*
=3	=3	=3	=3	=3	=3	=3	=3	=3	=3	=3	=3	=3	=3	=3	=3	=3	=3	=3	=3	=3	=3	=3	=3	=3	=3	=3
8E\L	7 #	.	8e\L	.	8g#X/L	.	8dd\L	.	2E\	San-	2B\	San-	2g#X\	San-	.	2dd\	San-	.	1r	.	1r	.	2gg#X\	.	2ddd\	.
8E\	.	.	8e\	.	8g#/	.	8dd\	.	.	.	.	.	.	.	.	.	.	.	.	.	.	.	.	.	.	.
8E\	.	.	8e\	.	8g#/	.	8dd\	.	.	.	.	.	.	.	.	.	.	.	.	.	.	.	.	.	.	.
8E\J	.	.	8e\J	.	8g#/J	.	8dd\J	.	.	.	.	.	.	.	.	.	.	.	.	.	.	.	.	.	.	.
8A\L	n	.	8e\L	.	8a/L	.	8ccn\L	.	2A\	-cto	2A\	-cto	2a\	-cto	.	2ccn\	-cto	.	.	.	.	.	2aa\	.	2ccc\	.
8A\	.	.	8e\	.	8a/	.	8cc\	.	.	.	.	.	.	.	.	.	.	.	.	.	.	.	.	.	.	.
8A\	.	.	8e\	.	8a/	.	8cc\	.	.	.	.	.	.	.	.	.	.	.	.	.	.	.	.	.	.	.
8A\J	.	.	8e\J	.	8a/J	.	8cc\J	.	.	.	.	.	.	.	.	.	.	.	.	.	.	.	.	.	.	.
=4	=4	=4	=4	=4	=4	=4	=4	=4	=4	=4	=4	=4	=4	=4	=4	=4	=4	=4	=4	=4	=4	=4	=4	=4	=4	=4
*	*	*	*	*	*	*	*	*	*	*	*	*	*	*	*	*	*	*	*tremolo	*	*	*	*	*	*	*
8F#X\L	6 5	.	8f#X\L	.	8a/L 8d/	.	8cc\L	.	4.F#X\	Spi-	4.d\	Spi-	4.a\	Spi-	.	4.cc\	Spi-	.	8d/L	.	2a\	.	2aa\	.	2ccc\	.
8F#\	.	.	8f#\	.	8a/ 8d/	.	8cc\	.	.	.	.	.	.	.	.	.	.	.	8d/	.	.	.	.	.	.	.
8F#\	.	.	8f#\	.	8a/ 8d/	.	8cc\	.	.	.	.	.	.	.	.	.	.	.	8d/	.	.	.	.	.	.	.
8F#\J	.	.	8f#\J	.	8a/J 8d/	.	8cc\J	.	8F#\	-ri-	8d\	-ri-	8a\	-ri-	.	8cc\	-ri-	.	8d/J	.	.	.	.	.	.	.
*Xtremolo	*	*	*Xtremolo	*	*Xtremolo	*	*Xtremolo	*	*	*	*	*	*	*	*	*	*	*	*Xtremolo	*	*	*	*	*	*	*
!LO:TX:b:i:t=pedale	!	!	!	!	!	!	!	!LO:DY:a	!	!	!	!	!	!	!	!	!	!	!	!	!	!LO:DY:a:rj	!	!	!	!
4G\	.	.	4g\	.	4d/	.	4b\	p	4G\	-tu	4d\	-tu	4g\	-tu	.	4b\	-tu	.	4g\	.	4g\	p	4ggn\	.	4bb\	.
!	!	!	!	!LO:DY:a:t=p.	!	!LO:DY:a	!	!	!	!	!	!	!	!	!	!	!	!	!	!LO:DY:a	!	!	!	!	!	!
8GG/	.	.	4B/	p	4g/	p	(16dd\LL	.	4r	.	4r	.	4r	.	.	4r	.	.	4G/	p	4g\	.	4r	.	4r	.
.	.	.	.	.	.	.	16gg\)	.	.	.	.	.	.	.	.	.	.	.	.	.	.	.	.	.	.	.
!	!	!LO:DY:a:t=p.	!	!	!	!	!	!	!	!	!	!	!	!	!	!	!	!	!	!	!	!	!	!	!	!
8r	.	p	.	.	.	.	16gg'\	.	.	.	.	.	.	.	.	.	.	.	.	.	.	.	.	.	.	.
.	.	.	.	.	.	.	16gg'\JJ	.	.	.	.	.	.	.	.	.	.	.	.	.	.	.	.	.	.	.
=5	=5	=5	=5	=5	=5	=5	=5	=5	=5	=5	=5	=5	=5	=5	=5	=5	=5	=5	=5	=5	=5	=5	=5	=5	=5	=5
8GG/	.	.	2c/	.	2g/	.	16gg\LL	.	1r	.	1r	.	1r	.	.	1r	.	.	1G/	.	1g/	.	1r	.	1r	.
.	.	.	.	.	.	.	16ee\J	.	.	.	.	.	.	.	.	.	.	.	.	.	.	.	.	.	.	.
8r	.	.	.	.	.	.	8ee\J	.	.	.	.	.	.	.	.	.	.	.	.	.	.	.	.	.	.	.
8GG/	.	.	.	.	.	.	(16ee\LL	.	.	.	.	.	.	.	.	.	.	.	.	.	.	.	.	.	.	.
.	.	.	.	.	.	.	16gg\)	.	.	.	.	.	.	.	.	.	.	.	.	.	.	.	.	.	.	.
8r	.	.	.	.	.	.	16gg'\	.	.	.	.	.	.	.	.	.	.	.	.	.	.	.	.	.	.	.
.	.	.	.	.	.	.	16gg'\JJ	.	.	.	.	.	.	.	.	.	.	.	.	.	.	.	.	.	.	.
8GG/	.	.	2B/	.	2g/	.	16gg\LL	.	.	.	.	.	.	.	.	.	.	.	.	.	.	.	.	.	.	.
.	.	.	.	.	.	.	16dd\J	.	.	.	.	.	.	.	.	.	.	.	.	.	.	.	.	.	.	.
8r	.	.	.	.	.	.	8dd\J	.	.	.	.	.	.	.	.	.	.	.	.	.	.	.	.	.	.	.
8GG/	.	.	.	.	.	.	(16dd\LL	.	.	.	.	.	.	.	.	.	.	.	.	.	.	.	.	.	.	.
.	.	.	.	.	.	.	16gg\)	.	.	.	.	.	.	.	.	.	.	.	.	.	.	.	.	.	.	.
8r	.	.	.	.	.	.	16gg'\	.	.	.	.	.	.	.	.	.	.	.	.	.	.	.	.	.	.	.
.	.	.	.	.	.	.	16gg'\JJ	.	.	.	.	.	.	.	.	.	.	.	.	.	.	.	.	.	.	.
=6	=6	=6	=6	=6	=6	=6	=6	=6	=6	=6	=6	=6	=6	=6	=6	=6	=6	=6	=6	=6	=6	=6	=6	=6	=6	=6
*tremolo	*	*	*tremolo	*	*tremolo	*	*	*	*	*	*	*	*	*	*	*	*	*	*	*	*	*	*	*	*	*
!LO:TX:a:i:t=Organ Tutti	!	!	!	!LO:DY:a:t=for	!	!LO:DY:a:t=for	!	!LO:DY:a:t=for	!	!	!	!	!	!	!	!	!	!	!	!	!	!	!	!	!	!
8E\L	.	.	8A/L	f	8g/L	f	8gg\L	f	2E\	Cum	2A\	Cum	2g\	Cum	.	2cc#X\	Cum	.	8r	.	8r	.	2cc#X\	.	2gg\	.
!	!	!	!	!	!	!	!	!	!	!	!	!	!	!	!	!	!	!	!	!LO:DY:a	!	!LO:DY:a:t=for	!	!	!	!
8E\	.	.	8A/	.	8g/	.	8cc#X\	.	.	.	.	.	.	.	.	.	.	.	8g\L	f	8g\L	f	.	.	.	.
8E\	.	.	8A/	.	8g/	.	8cc#\	.	.	.	.	.	.	.	.	.	.	.	8g\	.	8g\	.	.	.	.	.
8E\J	.	.	8A/J	.	8g/J	.	8cc#\J	.	.	.	.	.	.	.	.	.	.	.	8g\J	.	8g\J	.	.	.	.	.
*	*	*	*	*	*	*	*	*	*	*	*	*	*	*	*	*	*	*	*tremolo	*	*tremolo	*	*	*	*	*
8F#\L	.	.	8d\L	.	2a/ 2d/	.	8aa\L	.	2F#X\	San-	2d\	San-	2a\	San-	.	2ccn\	San-	.	8d/L	.	8a\L	.	2ccn\	.	2aa\	.
8F#\	.	.	8d\	.	.	.	8ccn\	.	.	.	.	.	.	.	.	.	.	.	8d/	.	8a\	.	.	.	.	.
8F#\	.	.	8d\	.	.	.	8cc\	.	.	.	.	.	.	.	.	.	.	.	8d/	.	8a\	.	.	.	.	.
8F#\J	.	.	8d\J	.	.	.	8cc\J	.	.	.	.	.	.	.	.	.	.	.	8d/J	.	8a\J	.	.	.	.	.
!	!	!	!	!	!	!	!	!	!	!	!	!	!	!	!	!	!	!	!	!	!	!	!LO:LB:g=original	!	!LO:LB:g=original	!
=7	=7	=7	=7	=7	=7	=7	=7	=7	=7	=7	=7	=7	=7	=7	=7	=7	=7	=7	=7	=7	=7	=7	=7	=7	=7	=7
8G\L	.	.	8g\L	.	8b/L 8d/	.	8gg\L	.	2G\	-cto	2d\	-cto	2g\	-cto	.	2b\	-cto	.	8g\L	.	8b\L	.	2b\	.	2gg\	.
8G\	.	.	8g\	.	8b/ 8d/	.	8b\	.	.	.	.	.	.	.	.	.	.	.	8g\	.	8b\	.	.	.	.	.
8G\	.	.	8g\	.	8b/ 8d/	.	8b\	.	.	.	.	.	.	.	.	.	.	.	8g\	.	8b\	.	.	.	.	.
8G\J	.	.	8g\J	.	8b/J 8d/	.	8b\J	.	.	.	.	.	.	.	.	.	.	.	8g\J	.	8b\J	.	.	.	.	.
*	*	*	*	*	*	*	*	*	*	*ij	*	*ij	*	*ij	*	*	*ij	*	*	*	*	*	*	*	*	*
8E\L	5	.	8e\L	.	8g/L	.	8gg\L	.	4E\	San-	4e\	San-	4g\	San-	.	4b\	San-	.	8g\L	.	8b\L	.	2b\	.	2gg\	.
8E\	.	.	8e\	.	8g/	.	8b\	.	.	.	.	.	.	.	.	.	.	.	8g\	.	8b\	.	.	.	.	.
8E\	.	.	8e\	.	8g/	.	8b\	.	4E\	-cto	4e\	-cto	4g\	-cto	.	4b\	-cto	.	8g\	.	8b\	.	.	.	.	.
*	*	*	*	*	*	*	*	*	*	*Xij	*	*Xij	*	*Xij	*	*	*Xij	*	*	*	*	*	*	*	*	*
8E\J	.	.	8e\J	.	8g/J	.	8b\J	.	.	.	.	.	.	.	.	.	.	.	8g\J	.	8b\J	.	.	.	.	.
!LO:LB:g=original	!	!	!	!	!LO:LB:g=original	!	!	!	!	!	!	!	!	!	!	!	!	!	!	!	!	!	!	!	!	!
=8	=8	=8	=8	=8	=8	=8	=8	=8	=8	=8	=8	=8	=8	=8	=8	=8	=8	=8	=8	=8	=8	=8	=8	=8	=8	=8
*	*	*	*	*	*	*	*tremolo	*	*	*	*	*	*	*	*	*	*	*	*	*	*	*	*	*	*	*
8C#X/L	6 5	.	8c#X\L	.	8e/L 8A/	.	8gg/L 8a/	.	4.C#X/	Spi-	4.e\	Spi-	4.g\	Spi-	.	4.a\	Spi-	.	8a\L	.	8a\L	.	2ee\	.	2gg\	.
8C#/	.	.	8c#\	.	8e/ 8A/	.	8gg/ 8a/	.	.	.	.	.	.	.	.	.	.	.	8a\	.	8a\	.	.	.	.	.
8C#/	.	.	8c#\	.	8e/ 8A/	.	8gg/ 8a/	.	.	.	.	.	.	.	.	.	.	.	8a\	.	8a\	.	.	.	.	.
8C#/J	.	.	8c#\J	.	8e/J 8A/	.	8gg/J 8a/	.	8C#/	-ri-	8e\	-ri-	8g\	-ri-	.	8a\	-ri-	.	8a\J	.	8a\J	.	.	.	.	.
*Xtremolo	*	*	*Xtremolo	*	*Xtremolo	*	*Xtremolo	*	*	*	*	*	*	*	*	*	*	*	*Xtremolo	*	*Xtremolo	*	*	*	*	*
!	!	!	!	!LO:DY:a:t=p.	!	!	!	!	!	!	!	!	!LO:SIC:v:s=4f#\	!	!	!	!	!	!	!	!	!	!	!	!	!
4D\	#	.	4d\	p	4f#X/ 4A/	.	4ff#X\	.	4D/	-tu	4d\	-tu	4f\	-tu	.	4a\	-tu	.	4d/	.	4a\	.	4dd\	.	4ff#X\	.
!LO:TX:b:i:t=pedał	!	!LO:DY:a:t=p.	!	!	!	!	!	!	!	!	!	!	!	!	!	!	!	!	!	!	!	!	!	!	!	!
8D\	.	p	4A/	.	4f#/	.	(16a\LL	.	4r	.	4r	.	4r	.	.	4r	.	.	4D/	.	4d/	.	4r	.	4r	.
.	.	.	.	.	.	.	16dd\)	.	.	.	.	.	.	.	.	.	.	.	.	.	.	.	.	.	.	.
!	!	!	!	!	!	!	!	!LO:DY:a	!	!	!	!	!	!	!	!	!	!	!	!	!	!	!	!	!	!
8r	.	.	.	.	.	.	16dd'\	p	.	.	.	.	.	.	.	.	.	.	.	.	.	.	.	.	.	.
.	.	.	.	.	.	.	16dd'\JJ	.	.	.	.	.	.	.	.	.	.	.	.	.	.	.	.	.	.	.
=9	=9	=9	=9	=9	=9	=9	=9	=9	=9	=9	=9	=9	=9	=9	=9	=9	=9	=9	=9	=9	=9	=9	=9	=9	=9	=9
!	!	!	!	!	!	!	!	!	!	!	!	!	!	!	!	!	!	!	!	!LO:DY:a	!	!	!	!	!	!
8D\	.	.	4G/	.	4g/	.	16dd\LL	.	1r	.	1r	.	1r	.	.	1r	.	.	1D/	p	1d/	.	2r	.	2r	.
.	.	.	.	.	.	.	16b\J	.	.	.	.	.	.	.	.	.	.	.	.	.	.	.	.	.	.	.
8r	.	.	.	.	.	.	8b\J	.	.	.	.	.	.	.	.	.	.	.	.	.	.	.	.	.	.	.
8D\	.	.	4G/	.	4B/	.	(16b\LL	.	.	.	.	.	.	.	.	.	.	.	.	.	.	.	.	.	.	.
.	.	.	.	.	.	.	16dd\)	.	.	.	.	.	.	.	.	.	.	.	.	.	.	.	.	.	.	.
8r	.	.	.	.	.	.	16dd'\	.	.	.	.	.	.	.	.	.	.	.	.	.	.	.	.	.	.	.
.	.	.	.	.	.	.	16dd'\JJ	.	.	.	.	.	.	.	.	.	.	.	.	.	.	.	.	.	.	.
!	!	!	!	!	!	!	!LO:LB:g=original	!	!	!	!	!	!	!	!	!	!	!	!	!	!	!	!	!	!	!
!	!	!	!	!	!	!	!LO:TX:t=P:problem=mixed beam	!	!	!	!	!	!	!	!	!	!	!	!	!	!	!	!	!LO:DY:a:rj	!	!
8D\	.	.	4A/	.	4c/	.	16dd\LL	.	.	.	.	.	.	.	.	.	.	.	.	.	.	.	4ccn\	p	4ff#X\	.
.	.	.	.	.	.	.	16f#X/	.	.	.	.	.	.	.	.	.	.	.	.	.	.	.	.	.	.	.
8r	.	.	.	.	.	.	16f#/	.	.	.	.	.	.	.	.	.	.	.	.	.	.	.	.	.	.	.
.	.	.	.	.	.	.	16f#/JJ	.	.	.	.	.	.	.	.	.	.	.	.	.	.	.	.	.	.	.
8D\	.	.	4c/	.	4B/	.	16a/LL	.	.	.	.	.	.	.	.	.	.	.	.	.	.	.	4b\	.	4gg\	.
.	.	.	.	.	.	.	16g/	.	.	.	.	.	.	.	.	.	.	.	.	.	.	.	.	.	.	.
8r	.	.	.	.	.	.	16g/	.	.	.	.	.	.	.	.	.	.	.	.	.	.	.	.	.	.	.
.	.	.	.	.	.	.	16g/JJ	.	.	.	.	.	.	.	.	.	.	.	.	.	.	.	.	.	.	.
!	!	!	!	!	!	!	!	!	!	!	!	!	!	!	!	!LO:LB:g=original	!	!	!	!	!	!	!	!	!	!
=10	=10	=10	=10	=10	=10	=10	=10	=10	=10	=10	=10	=10	=10	=10	=10	=10	=10	=10	=10	=10	=10	=10	=10	=10	=10	=10
*tremolo	*	*	*tremolo	*	*tremolo	*	*tremolo	*	*	*	*	*	*	*	*	*	*	*	*	*	*	*	*tremolo	*	*tremolo	*
!LO:TX:b:i:t=Organo.	!	!	!	!	!	!	!	!	!	!	!	!	!	!	!LO:DY:a	!	!	!LO:DY:a	!	!	!	!	!	!	!	!
8E\L	.	.	8A/L	.	8c#X/L	.	8g/L	.	4.E\	Spi-	4.A/	Spi-	4.c#X\	Spi-	p	4.g\	Spi-	p	2r	.	2r	.	8cc#X\L	.	8gg\L	.
8E\	.	.	8A/	.	8c#/	.	8g/	.	.	.	.	.	.	.	.	.	.	.	.	.	.	.	8cc#\	.	8gg\	.
8E\	.	.	8A/	.	8c#/	.	8g/	.	.	.	.	.	.	.	.	.	.	.	.	.	.	.	8cc#\	.	8gg\	.
8E\J	.	.	8A/J	.	8c#/J	.	8g/J	.	8E\	-ri-	8A/	-ri-	8c#\	-ri-	.	8g\	-ri-	.	.	.	.	.	8cc#\J	.	8gg\J	.
*Xtremolo	*	*	*Xtremolo	*	*Xtremolo	*	*Xtremolo	*	*	*	*	*	*	*	*	*	*	*	*	*	*	*	*Xtremolo	*	*Xtremolo	*
!	!	!LO:DY:b:t=p&colon;	!	!	!	!	!	!	!	!	!	!	!	!	!	!LO:SIC:v:s=4f#/	!	!	!	!	!	!	!	!	!	!
4D\	.	p	4A/	.	4d;/	.	4f#X;/	.	2D\	-tu	2A/	-tu	4d\	-tu	.	4f/	-tu	.	4D;/	.	4d/	.	4dd\	.	4ff#X\	.
4r	.	.	4r	.	4r	.	4r	.	.	.	.	.	4r	.	.	4r	.	.	4r	.	4r	.	4r	.	4r	.
==	==	==	==	==	==	==	==	==	==	==	==	==	==	==	==	==	==	==	==	==	==	==	==	==	==	==
*-	*-	*-	*-	*-	*-	*-	*-	*-	*-	*-	*-	*-	*-	*-	*-	*-	*-	*-	*-	*-	*-	*-	*-	*-	*-	*-
!!!system-decoration: [(s1,s2)][(s3,s4)][(s5,s6,s7,s8)][(s9,s10,s11)]s12
!!!ENC: Andrzej Kubiczek
!!!END: 2021-12-05
!!!ENC: Leszek Kubiak
!!!END: 2021-12-10
